X: 11
T: He bian ge
L: 1/4
M: 3/4
K: F
GD [I:setbarnb 1]| 
FA | 
c2 | 
AF | 
FA/ G/ | 
FF | 
GD | 
D/ G/F | 
Ac2 | 
[M:2/4]A/ G/ A/ G/ | 
G/ F/D | 
F2 | 
D/ G/D | 
FA/ G/ | 
[M:3/4]DF/ G/ A/ G/ | 
[M:2/4]F2 | 
DG | 
FA | 
c2 | 
A/ c/ G/ A/ | 
FD | 
F2 | 
FG | 
Ac- | 
c2 | 
Gc | 
GG/ A/ | 
FF | 
GD- | 
D2 |]

@@@ Tune index: 8679
